images/krom.svg

<svg height="250" viewBox="0 0 250 250" width="250" xmlns="http://www.w3.org/2000/svg"><path d="m49.375 42.035156c-3.367188.546875-6.035156 2.957032-6.933594 6.257813l-.234375.832031-.039062 9.875c-.027344 5.433594-.058594 18.351562-.066407 28.707031-.019531 10.359375-.058593 35.933594-.101562 56.835938-.042969 21.882812-.035156 38.296875.007812 38.707031.292969 2.851562 1.933594 5.324219 4.433594 6.667969 2.976563 1.605469 6.625 1.257812 9.550782-.917969.347656-.257812 1.5-1.234375 2.550781-2.167969 1.058593-.921875 2.683593-2.367187 3.625-3.199219.941406-.824218 3.941406-3.472656 6.664062-5.882812 6.859375-6.058594 11.777344-10.390625 13.453125-11.875.78125-.691406 3.691406-3.257812 6.464844-5.707031 2.773438-2.453125 5.792969-5.117188 6.707031-5.925781.917969-.808594 3.300781-2.910157 5.292969-4.667969 1.992188-1.765625 7.167969-6.332031 11.5-10.15625 4.332031-3.828125 8.792969-7.757813 9.910156-8.75 1.105469-.984375 2.25-1.984375 2.53125-2.226563l.5-.433594.675782.609376c.375.332031 1.574218 1.398437 2.675781 2.382812 4.75 4.226562 12.355469 11 18.207031 16.207031 2.550781 2.277344 9.316406 8.292969 14.042969 12.5 1.289062 1.152344 3.347656 2.984375 4.582031 4.085938 1.242188 1.097656 3.808594 3.390625 5.707031 5.082031 1.902344 1.691406 4.476563 3.984375 5.710938 5.082031 1.242187 1.101563 3.957031 3.527344 6.039062 5.382813 2.085938 1.859375 4.992188 4.445312 6.453125 5.742187 4.757813 4.242188 4.714844 4.210938 5.832032 4.792969 1.332031.707031 2.765624 1.015625 4.332031.933594 2.210937-.117188 4.152343-.984375 5.640625-2.535156 1.050781-1.089844 1.675781-2.148438 2.136718-3.648438.207032-.699219.222657-.839844.222657-2.292969 0-1.433593-.015625-1.589843-.222657-2.273437-.433593-1.410156-1.09375-2.582032-1.960937-3.5-.265625-.273438-1.65625-1.550782-3.097656-2.832032-1.441407-1.292968-3.46875-3.101562-4.5-4.019531-1.035157-.914062-3.769531-3.355469-6.085938-5.414062-2.316406-2.058594-5.046875-4.5-6.082031-5.417969s-3.410156-3.042969-5.292969-4.714844c-6.664062-5.945312-11.199219-9.96875-13.707031-12.203125-2.589844-2.308593-3.667969-3.265625-10.292969-9.164062-2.058593-1.835938-5.28125-4.710938-7.164062-6.375-1.875-1.675781-4.484375-3.992188-5.792969-5.160157-1.308594-1.167968-3.007812-2.683593-3.773438-3.367187l-1.402343-1.25.191406-.191406c.109375-.097657 1.359375-1.207031 2.785156-2.457031 1.414063-1.257813 4.789063-4.234376 7.492188-6.617188 2.699219-2.382812 5.566406-4.917969 6.375-5.625.796875-.707031 3.839843-3.390625 6.75-5.957031 10.367187-9.160157 10.75-9.492188 17.457031-15.417969 1.609375-1.410156 3.382812-2.984375 3.957031-3.5.578125-.507812 2.46875-2.183594 4.210938-3.714844 5.539062-4.886718 16.039062-14.160156 17.15625-15.152344 1.292969-1.148437 2-2.015624 2.550781-3.132812.632812-1.265625.851562-2.226562.859375-3.707031.007813-2.351563-.710937-4.210938-2.257813-5.851563-.800781-.832031-1.476562-1.339844-2.410156-1.808594-1.339844-.65625-2.332031-.882812-3.898437-.867187-.96875 0-1.308594.042969-1.984375.21875-1.050782.273437-2.175782.816406-3.015625 1.449219-.367188.273437-2.351563 1.992187-4.417969 3.816406-2.058594 1.824219-4.800781 4.242188-6.082031 5.375-1.285157 1.132812-3.667969 3.234375-5.292969 4.675781-4.449219 3.925781-9.332031 8.242188-14.625 12.90625-2.609375 2.308594-5.007812 4.425781-5.332031 4.71875-.316407.28125-2.566407 2.265625-5 4.414063-2.425781 2.144531-5.96875 5.269531-7.867188 6.945312-17.917969 15.816406-20.359375 17.964844-20.417969 17.988282-.042968.019531-.441406-.308594-.890624-.707032-1.484376-1.324218-10.152344-9.042968-18.699219-16.648437-1.402344-1.25-3.625-3.234375-4.960938-4.417969-1.324219-1.183594-4.574219-4.074219-7.207031-6.417969-2.632812-2.347656-6.023438-5.367187-7.542969-6.714843-1.507812-1.351563-4.605469-4.109376-6.875-6.125-2.265625-2.015626-5.007812-4.457032-6.082031-5.417969-1.074219-.957031-4.523438-4.03125-7.667969-6.824219-3.140625-2.792969-6.308593-5.617188-7.039062-6.273438-2.050781-1.835937-2.792969-2.359374-4.167969-2.941406-1.441406-.617187-3.308594-.867187-4.75-.625zm15.25 32.046875c5.949219 5.300781 11.410156 10.160157 15.207031 13.542969 1.492188 1.324219 4.226563 3.757812 6.085938 5.417969 3 2.671875 5.933593 5.28125 14.039062 12.5 1.292969 1.148437 4.042969 3.597656 6.125 5.457031 2.085938 1.851562 4.335938 3.859375 5 4.449219.667969.59375 1.21875 1.101562 1.226563 1.125.007812.027343-1.234375 1.140625-2.75 2.484375-2.632813 2.308594-4.46875 3.925781-13.308594 11.734375-2.125 1.875-4.507812 3.980469-5.285156 4.664062-1.355469 1.191407-7.53125 6.652344-15.039063 13.285157-1.902343 1.675781-4.132812 3.648437-4.96875 4.382812-.832031.734375-3.832031 3.375-6.65625 5.875-2.835937 2.5-5.183593 4.550781-5.226562 4.566406-.074219.035156-.039063-38.457031.050781-65.066406.023438-6.441406.042969-15.660156.042969-20.492188v-8.78125l.191406.164063c.097656.101563 2.472656 2.210937 5.265625 4.691406zm0 0" fill="#add8e6"/></svg>

<svg xmlns="http://www.w3.org/2000/svg" xmlns:xlink="http://www.w3.org/1999/xlink" width="250px" height="250px" viewBox="0 0 250 250" version="1.1">
<g id="surface1">
<path style=" stroke:none;fill-rule:nonzero;fill:rgb(67.843139%,84.705883%,90.196079%);fill-opacity:1;" d="M 49.375 42.035156 C 46.007812 42.582031 43.339844 44.992188 42.441406 48.292969 L 42.207031 49.125 L 42.167969 59 C 42.140625 64.433594 42.109375 77.351562 42.101562 87.707031 C 42.082031 98.066406 42.042969 123.640625 42 144.542969 C 41.957031 166.425781 41.964844 182.839844 42.007812 183.25 C 42.300781 186.101562 43.941406 188.574219 46.441406 189.917969 C 49.417969 191.523438 53.066406 191.175781 55.992188 189 C 56.339844 188.742188 57.492188 187.765625 58.542969 186.832031 C 59.601562 185.910156 61.226562 184.464844 62.167969 183.632812 C 63.109375 182.808594 66.109375 180.160156 68.832031 177.75 C 75.691406 171.691406 80.609375 167.359375 82.285156 165.875 C 83.066406 165.183594 85.976562 162.617188 88.75 160.167969 C 91.523438 157.714844 94.542969 155.050781 95.457031 154.242188 C 96.375 153.433594 98.757812 151.332031 100.75 149.574219 C 102.742188 147.808594 107.917969 143.242188 112.25 139.417969 C 116.582031 135.589844 121.042969 131.660156 122.160156 130.667969 C 123.265625 129.683594 124.410156 128.683594 124.691406 128.441406 L 125.191406 128.007812 L 125.867188 128.617188 C 126.242188 128.949219 127.441406 130.015625 128.542969 131 C 133.292969 135.226562 140.898438 142 146.75 147.207031 C 149.300781 149.484375 156.066406 155.5 160.792969 159.707031 C 162.082031 160.859375 164.140625 162.691406 165.375 163.792969 C 166.617188 164.890625 169.183594 167.183594 171.082031 168.875 C 172.984375 170.566406 175.558594 172.859375 176.792969 173.957031 C 178.035156 175.058594 180.75 177.484375 182.832031 179.339844 C 184.917969 181.199219 187.824219 183.785156 189.285156 185.082031 C 194.042969 189.324219 194 189.292969 195.117188 189.875 C 196.449219 190.582031 197.882812 190.890625 199.449219 190.808594 C 201.660156 190.691406 203.601562 189.824219 205.089844 188.273438 C 206.140625 187.183594 206.765625 186.125 207.226562 184.625 C 207.433594 183.925781 207.449219 183.785156 207.449219 182.332031 C 207.449219 180.898438 207.433594 180.742188 207.226562 180.058594 C 206.792969 178.648438 206.132812 177.476562 205.265625 176.558594 C 205 176.285156 203.609375 175.007812 202.167969 173.726562 C 200.726562 172.433594 198.699219 170.625 197.667969 169.707031 C 196.632812 168.792969 193.898438 166.351562 191.582031 164.292969 C 189.265625 162.234375 186.535156 159.792969 185.5 158.875 C 184.464844 157.957031 182.089844 155.832031 180.207031 154.160156 C 173.542969 148.214844 169.007812 144.191406 166.5 141.957031 C 163.910156 139.648438 162.832031 138.691406 156.207031 132.792969 C 154.148438 130.957031 150.925781 128.082031 149.042969 126.417969 C 147.167969 124.742188 144.558594 122.425781 143.25 121.257812 C 141.941406 120.089844 140.242188 118.574219 139.476562 117.890625 L 138.074219 116.640625 L 138.265625 116.449219 C 138.375 116.351562 139.625 115.242188 141.050781 113.992188 C 142.464844 112.734375 145.839844 109.757812 148.542969 107.375 C 151.242188 104.992188 154.109375 102.457031 154.917969 101.75 C 155.714844 101.042969 158.757812 98.359375 161.667969 95.792969 C 172.035156 86.632812 172.417969 86.300781 179.125 80.375 C 180.734375 78.964844 182.507812 77.390625 183.082031 76.875 C 183.660156 76.367188 185.550781 74.691406 187.292969 73.160156 C 192.832031 68.273438 203.332031 59 204.449219 58.007812 C 205.742188 56.859375 206.449219 55.992188 207 54.875 C 207.632812 53.609375 207.851562 52.648438 207.859375 51.167969 C 207.867188 48.816406 207.148438 46.957031 205.601562 45.316406 C 204.800781 44.484375 204.125 43.976562 203.191406 43.507812 C 201.851562 42.851562 200.859375 42.625 199.292969 42.640625 C 198.324219 42.640625 197.984375 42.683594 197.308594 42.859375 C 196.257812 43.132812 195.132812 43.675781 194.292969 44.308594 C 193.925781 44.582031 191.941406 46.300781 189.875 48.125 C 187.816406 49.949219 185.074219 52.367188 183.792969 53.5 C 182.507812 54.632812 180.125 56.734375 178.5 58.175781 C 174.050781 62.101562 169.167969 66.417969 163.875 71.082031 C 161.265625 73.390625 158.867188 75.507812 158.542969 75.800781 C 158.226562 76.082031 155.976562 78.066406 153.542969 80.214844 C 151.117188 82.359375 147.574219 85.484375 145.675781 87.160156 C 127.757812 102.976562 125.316406 105.125 125.257812 105.148438 C 125.214844 105.167969 124.816406 104.839844 124.367188 104.441406 C 122.882812 103.117188 114.214844 95.398438 105.667969 87.792969 C 104.265625 86.542969 102.042969 84.558594 100.707031 83.375 C 99.382812 82.191406 96.132812 79.300781 93.5 76.957031 C 90.867188 74.609375 87.476562 71.589844 85.957031 70.242188 C 84.449219 68.890625 81.351562 66.132812 79.082031 64.117188 C 76.816406 62.101562 74.074219 59.660156 73 58.699219 C 71.925781 57.742188 68.476562 54.667969 65.332031 51.875 C 62.191406 49.082031 59.023438 46.257812 58.292969 45.601562 C 56.242188 43.765625 55.5 43.242188 54.125 42.660156 C 52.683594 42.042969 50.816406 41.792969 49.375 42.035156 Z M 64.625 74.082031 C 70.574219 79.382812 76.035156 84.242188 79.832031 87.625 C 81.324219 88.949219 84.058594 91.382812 85.917969 93.042969 C 88.917969 95.714844 91.851562 98.324219 99.957031 105.542969 C 101.25 106.691406 104 109.140625 106.082031 111 C 108.167969 112.851562 110.417969 114.859375 111.082031 115.449219 C 111.75 116.042969 112.300781 116.550781 112.308594 116.574219 C 112.316406 116.601562 111.074219 117.714844 109.558594 119.058594 C 106.925781 121.367188 105.089844 122.984375 96.25 130.792969 C 94.125 132.667969 91.742188 134.773438 90.964844 135.457031 C 89.609375 136.648438 83.433594 142.109375 75.925781 148.742188 C 74.023438 150.417969 71.792969 152.390625 70.957031 153.125 C 70.125 153.859375 67.125 156.5 64.300781 159 C 61.464844 161.5 59.117188 163.550781 59.074219 163.566406 C 59 163.601562 59.035156 125.109375 59.125 98.5 C 59.148438 92.058594 59.167969 82.839844 59.167969 78.007812 L 59.167969 69.226562 L 59.359375 69.390625 C 59.457031 69.492188 61.832031 71.601562 64.625 74.082031 Z M 64.625 74.082031 "/>
</g>
</svg>
